!!!COM: Felix Mendelssohn
!!!CNT: Deutsch
!!!TXO: Deutsch
!!!OTL: Auf Flu2geln des Gesanges
!!!LYR: Heine
!!!OPS: Op. 34
!!!ONM: No. 2
!!!ENC: Daniel Alt & Leigh VanHandel
!!!YOR: Sa2mmtliche Lieder fu2r eine Singstimme 
!!!YOR: Neu revidirt von Dr. L. Benda, Ausgabe fu2r mittlere Stimme
!!!YOR: Braunschweig. Henry Litolff's Verlag. Boston and New York: Arthur P. Schmidt.
!!!ODT: 1835/
**kern	**silbe
*staff1	*
=1-	=1-
*clefG2	*
*k[f#]	*
*M6/8	*
4r	.
8r	.
4r	.
{8d	{Auf
=2	=2
4b	Flu2-
8b	-geln
8b	des
8cc	|
8dd	Ge-
=3	=3
4.dd	-san-
4f#}	-ges,}
{8d	{Herz-
=4	=4
4a	-lieb-
8a	-chen,
8a	trag'
8b	ich
8cc	dich
=5	=5
4.b}	fort,}
4r	.
8r	.
=6	=6
{8b	{fort
8b	nach
8b	den
8b	Flu-
8cc	-ren
8dd	des
=7	=7
4.dd	Gan-
4e}	-ges,}
{8e	{dort
=8	=8
8a	weiss
8e	ich
8f#	den
4g	scho2n-
16g	-sten
16f#	|
=9	=9
4.f#}	Ort;}
4r	.
{8dd	{da
=10	=10
8dd	liegt
8a	ein
8a	roth-
ccq	-blu2-
8b	|
8a	-hen-
8b	-der
=11	=11
4.cc	Gar-
4ee}	-ten}
{8a	{im
=12	=12
4dd	stil-
8a	-len
ccq	Mon-
8b	|
8a	|
8b	-den-
=13	=13
[4.cc	-schein,
8cc]}	|}
8r	.
{8cc	{die
=14	=14
4cc	Lo-
8cc	-tos-
8ee	-blu-
8dd	-men
8cc	er-
=15	=15
4.b	-war-
ddq	|
ccq	|
4b}	-ten}
{8b	{ihr
=16	=16
4b	trau-
8b	-tes
8dd	Sch-
8cc	-wes-
8b	-ter-
=17	=17
[4.a	-lein,
8a]}	|}
8r	.
{8d	{die
=18	=18
4b	Lo-
8b	-tos-
8b	-blu-
8cc	-men
8dd	er-
=19	=19
[2.dd	-war-
=20	=20
4.dd]	|
4f#}	-ten}
{8g#	{ihr
=21	=21
4a	trau-
8a	-tes
4cc	Schwes-
8b	-ter-
=22	=22
4.g}	-lein.}
4r	.
8r	.
=23	=23
2.r	.
=24	=24
2.r	.
=25	=25
4r	.
8r	.
4r	.
{8d	{Dort
=26	=26
8b	wol-
8b	-len
8b	wir
8b	nie-
8cc	|
8dd	-der-
=27	=27
4.dd	-sin-
4f#}	-ken}
8r	.
=28	=28
{8a	{un-
8a	-ter
8a	dem
8a	Pal-
8b	|
8cc	-men-
=29	=29
4.b}	-baum,}
4r	.
{8dd	{und
=30	=30
4cc	Lieb'
8cc	und
8ee	Ru-
8dd	|
8cc	-he
=31	=31
4.b	trin-
ddq	|
ccq	|
8b}	-ken,}
8r	.
{8b	{und
=32	=32
4a	tra2u-
8a	-men
8cc	se-
8b	-li-
8a	-gen
=33	=33
2.dd	Traum,
=34	=34
4.cc#}	|}
{4.ccn	{und
=35	=35
4.a	tra2u-
4.b	-men
=36	=36
[4.cc	se-
8cc]	|
8f#	-li-
8f#	-gen
=37	=37
4.g}	Traum,}
4r	.
8r	.
=38	=38
2.r	.
=39	=39
{2.dd	{sel'-
=40	=40
[4.cc	|
4cc]	|
8b	-gen
=41	=41
[2.b	Traum.
=42	=42
4.b]}	|}
4r	.
8r	.
==	==
*-	*-